!!!OTL-incipit: ES TAGET VOR DEM WALDE
!!!ARE: Europa, Mitteleuropa, Deutschland
!!!SCT: Z0214
!!!TXL: @@DE
!!!YEM: Copyright 1995, estate of Helmut Schaffrath.
**kern	**text
*ICvox	*
*M3/8	*
*k[b-]	*
*d:	*
!LO:TX:a:t=Jagdlied aus dem ſechsʒehnten Jahrhundert.	!
!LO:TX:a:t=Altdeutſch.	!
{8dd	Es
=1	=1
4dd	ta-
8dd	-get
=2	=2
4dd	vor
8dd	dem
=3	=3
4.ff	Wal-
=4	=4
4.b-}	-de,
=5	=5
{4dd	ſtand
8dd	auf,
=6	=6
4ff	Kät-
8ee	-ter-
=7	=7
4.dd	-lein,
=8	=8
4r}	.
{8dd	die
=9	=9
4dd	Ha-
8dd	-ſen
=10	=10
4ff	lau-
8ff	-fen
=11	=11
4.b-	bal-
=12	=12
4.dd}	-de,
=13	=13
{4cc	ſtand
8cc	auf,
=14	=14
8cc	Kät-
8cc	-ter-
8a}	-lein.
=15	=15
{4b-/	Hol-
8g	-der
=16	=16
4f	Buhl,
8f	Ha-
=17	=17
4dd	-ja
8dd}	ho,
=18	=18
{4.ff	du
=19	=19
4.ee	biſt
=20	=20
4dd	mein
8b-	und
=21	=21
8cc	ich
4a	bin
=22	=22
4.g}	dein,
=23	=23
{4dd	ſtand
8b-	auf,
=24	=24
8cc	Kät-
4a	-ter-
=25	=25
4g}	-lein.
==	==
!!!AGN: Jaeger - Lied
!!!ONB: ESAC (Essen Associative Code) Database: ZUCCAL
!!!AMT: simple triple
!!!AIN: vox
!!!EED: Helmut Schaffrath
!!!EEV: 1.0
!!!GTL: III. Soldaten-, Jaeger-, Schiffer-, Fuhrmanns- und Handwerks-Lieder.
!!!URL-scan: https://www.digitale-sammlungen.de/de/view/bsb11160571?page=399
!!!ENC: Anna Maria Matuszewska
!!!EEV: 2025/01/29
*-	*-
